wire-webapp/content/image/icon/mic-off-icon.svg

<svg width="16" height="16" xmlns="http://www.w3.org/2000/svg"><g fill="none" fill-rule="evenodd"><path d="M0 .02h15.901v15.901H0z"/><g fill="#000" fill-rule="nonzero"><path d="M7.95 11.846a3.372 3.372 0 01-1.64-.437l-.864.864a4.674 4.674 0 001.858.716v1.192h-1.64v1.213h4.324V14.18H8.527V13c2.574-.338 4.591-2.892 4.591-6.003h-1.212c-.01 2.674-1.78 4.85-3.956 4.85z"/><path d="M10.822 7.95V6.917l-3.786 3.766c.288.09.586.15.904.15a2.884 2.884 0 002.882-2.883zM12.313 2.117l-1.49 1.49V3.4A2.884 2.884 0 007.94.517a2.884 2.884 0 00-2.882 2.882V7.95c0 .408.09.805.239 1.153l-.606.606a5.672 5.672 0 01-.686-2.723H2.793c0 1.352.377 2.594 1.013 3.598L1.79 12.59l.914.915L13.227 3.03l-.914-.914z"/></g></g></svg>

<svg width="16" height="16" xmlns="http://www.w3.org/2000/svg">
  <path d="M7.95 11.85a3.37 3.37 0 01-1.64-.44l-.86.86A4.67 4.67 0 007.3 13v1.2H5.66v1.2H10v-1.21H8.53V13c2.57-.34 4.59-2.9 4.59-6H11.9c-.01 2.67-1.78 4.85-3.96 4.85z"/>
  <path d="M10.82 7.95V6.92l-3.78 3.76a3 3 0 00.9.15 2.88 2.88 0 002.88-2.88zm1.5-5.83l-1.5 1.49V3.4A2.88 2.88 0 007.94.52 2.88 2.88 0 005.06 3.4v4.55c0 .4.09.8.24 1.15l-.6.6A5.67 5.67 0 014 7H2.8c0 1.35.37 2.59 1 3.6l-2.01 2 .91.92L13.23 3.02l-.92-.91z"/>
</svg>
